X:1
T:Qual rimedio
T:Virgilio Mazzocchi
T:Source : Ariette di Musica a uno et due voci---Bracciano---A.Frei---1646. Editor : André Vierendeels (19/11/16).
T:Notes : Original clefs : C1, F4 Dotted brackets indicate black notes Figures in BC are notated in original print See also the "prima parte : La Belà" (same composer) Continuo slightly adapted Original note values have been halved
T:Qual rimedio
T:seconda parte
T:©
T:©
T:©
C:Virgilio Mazzocchi
Z:©
%%score 1 { 2 | 3 }
L:1/8
Q:1/4=120
M:6/4
K:C
V:1 treble nm="Soprano" snm="S"
V:2 treble nm="MusicXML Part"
V:3 bass 
V:1
 z2 A3 G ^F2 D4 | B8- B3 A | G2 A4 A2 z4 | z2 F3 E D4 D2 | z2 d3 c B2 B2 A2 | G4 E2 ^F4 G2 | %6
w: Qual ri- me- dio|han- * no|gli'A- man- ti?|lun- ghi pian- ti,|qual ha pre- mio il|fi- do Ruo- lo?|
 z8 c3 B | A4 A2 z4 z2 | c2 _B2 A2 A2 A2 G2 | F4 D2 E4 E2 | z6 z2 _B3 A | G4 E2 z2 F3 E | %12
w: Fie- ro|duo- lo,|chi pon fi- ne all' em-|pi- a sor- te?|Sol la|mor- te, sol la|
 D4 D2 z2 G3 F | E2 G4 G4 ^F2 | G2 FE D2 z2 F3 G | A4 B2 c2 B2 c2 | A2 A2 c2 c2 _B4 | %17
w: mor- te fug- ge'A-|mo- rr'un pet- to|for- * * te, poi che|son de su- e ru-|i- ne il ri- me-|
 _B2 A2 B2 B2 A2 B2 | G2 G2 _B2 A2 A2 c2 | dc _BA GF E2 C2 F2 | _B4 F2 _A2 G4 | F4 A2 G2 E2 A2 | %22
w: dio, il pre- mi- o, el|fi- ne i pian- ti du-|o- * * * * * * lo e|la mor- * *|te, i pian- t'il du-|
 _BA GF ED ^C2 A,2 G2- | G2 F4 F2 E4 | D12 |] %25
w: o- * * * * * * lo e|_ ma mor- *|.te.|
V:2
 z12 | z12 |"^6\n4" z12 | z12 | z12 | z12 |"^6\n4""^5\n3" z12 | z12 | z12 | z12 | z12 | z12 | z12 | %13
 z12 | z12 | z12 | z12 | z12 | z12 | z12 | z12 | z12 | z12 | z12 | z12 |] %25
V:3
"^#""^BC" z2 D,4 D,4 ^F,2 |"^#" G,4 G,2 D,4 D,2 |"^-natural" D,2 E,2 F,2 G,2 A,4 | %3
"^5\n3" D,2 D2 C2 B,2 A,2 G,2 |"^6" ^F,4 F,2 G,4 A,2 |"^6" B,4 ^C2 D4 D2 | A,2 B,2 C2 D2 E4 | %7
 A,4 A,2 A,2 G,2 F,2 |"^6" E,4 E,2 F,4 G,2 |"^6" A,4 B,2 C4 C2 |"^6543" G,2 A,2 _B,2 C2 D4 | %11
"^6\n4""^5\n3" G,4 G,2 A,4 A,2 | D,2 D3 C B,2 B,2 B,2 | C2 C2 C2 D4 D2 | G,4 F,E, D,4 E,2 | %15
"^4 3" F,2 C2 D2 E4 E2 | F4 C4 C4 | D4 C4 D4 |"^6" G,4 G,2 A,2 A,2 A,2 | _B,2 B,2 B,2 C4 A,2 | %20
 _B,4 C8 |"^6" F,4 F,2 E,2 E,2 F,2 | G,2 G,2 G,2 A,4 G,2- |"^4 3" G,2 D,2 A,4 A,4 | D,12 |] %25

